X: 142
T: Zhenqui de lao hai The scales with silver weight
%%abc-version 2.0
%%abcx-abcm2ps-target-version 5.9.1 (29 Sep 2008)
%%abc-creator hum2abc beta
%%abcx-conversion-date 2013/10/02 07:44:27
%%abc-edited-by Helmut Schaffrath
%%humdrum-veritas 659410150
%%humdrum-veritas-data 1134307585
%%continueall 1
%%barnumbers 0
L: 1/8
M: 2/4
K: C
e2d e [I:setbarnb 1]| 
G Ac2 | 
d eA2 | 
G2C2 | 
E G C D | 
E G c A | 
AG3- | 
G3z | 
e2d e | 
G Ac2 | 
d eA2 | 
G2C2 | 
E G C D | 
E G c A | 
AG3- | 
G3z |]  



